assets/images/Expo/Document.svg

<svg width="48" height="48" viewBox="0 0 48 48" fill="none" xmlns="http://www.w3.org/2000/svg">
<circle cx="24" cy="24" r="24" fill="#F7C24D"/>
<path fill-rule="evenodd" clip-rule="evenodd" d="M17.2942 12C16.4205 12 15.5826 12.3471 14.9649 12.9648C14.3471 13.5826 14 14.4205 14 15.2942V33.6474C14 34.521 14.3471 35.3589 14.9649 35.9767C15.5826 36.5945 16.4205 36.9415 17.2942 36.9415H31.0591C31.9328 36.9415 32.7706 36.5945 33.3884 35.9767C34.0062 35.3589 34.3532 34.521 34.3532 33.6474V20.2748V20.2746C34.3532 19.8358 34.2655 19.4014 34.0952 18.9969C33.9249 18.5924 33.6755 18.2261 33.3617 17.9193L28.2689 12.9389L28.2688 12.9388C27.6534 12.3371 26.8269 12.0001 25.9662 12H25.9661H17.2942ZM16.3791 14.379C16.6218 14.1363 16.9509 14 17.2942 14H25.4708V17.5883C25.4708 18.462 25.8179 19.2999 26.4356 19.9176C27.0534 20.5354 27.8913 20.8825 28.765 20.8825H32.3532V33.6474C32.3532 33.9906 32.2169 34.3198 31.9742 34.5625C31.7315 34.8052 31.4023 34.9415 31.0591 34.9415H17.2942C16.9509 34.9415 16.6218 34.8052 16.3791 34.5625C16.1364 34.3198 16 33.9906 16 33.6474V15.2942C16 14.9509 16.1364 14.6217 16.3791 14.379ZM31.4861 18.8825L27.4708 14.9558V17.5883C27.4708 17.9315 27.6072 18.2607 27.8499 18.5034C28.0926 18.7461 28.4217 18.8825 28.765 18.8825H31.4861ZM20.7354 24.6179C20.1831 24.6179 19.7354 25.0656 19.7354 25.6179C19.7354 26.1702 20.1831 26.6179 20.7354 26.6179H27.6179C28.1702 26.6179 28.6179 26.1702 28.6179 25.6179C28.6179 25.0656 28.1702 24.6179 27.6179 24.6179H20.7354ZM19.7354 30.2062C19.7354 29.654 20.1831 29.2062 20.7354 29.2062H24.1766C24.7289 29.2062 25.1766 29.654 25.1766 30.2062C25.1766 30.7585 24.7289 31.2062 24.1766 31.2062H20.7354C20.1831 31.2062 19.7354 30.7585 19.7354 30.2062Z" fill="#010107"/>
</svg>

<svg xmlns="http://www.w3.org/2000/svg" width="48" height="48" fill="none" viewBox="0 0 48 48"><circle cx="24" cy="24" r="24" fill="#F7C24D"/><path fill="#010107" fill-rule="evenodd" d="M17.294 12A3.294 3.294 0 0 0 14 15.294v18.353a3.294 3.294 0 0 0 3.294 3.294H31.06a3.294 3.294 0 0 0 3.294-3.294V20.275a3.293 3.293 0 0 0-.991-2.356l-5.093-4.98A3.294 3.294 0 0 0 25.966 12h-8.672zm-.915 2.379c.243-.243.572-.379.915-.379h8.177v3.588a3.294 3.294 0 0 0 3.294 3.294h3.588v12.765a1.294 1.294 0 0 1-1.294 1.294H17.294A1.294 1.294 0 0 1 16 33.648V15.294c0-.343.136-.672.38-.915zm15.107 4.504l-4.015-3.927v2.632a1.294 1.294 0 0 0 1.294 1.294h2.721zm-10.75 5.735a1 1 0 1 0 0 2h6.882a1 1 0 1 0 0-2h-6.883zm-1 5.588a1 1 0 0 1 1-1h3.44a1 1 0 0 1 0 2h-3.44a1 1 0 0 1-1-1z" clip-rule="evenodd"/></svg>
